X:552
T:Ajtódnál valaki megáll
M:2/4
L:1/8
Q:1/8=180
O:Spirituálé
K:E
E E2 G | FE CE | E4-| E2 z2 | B B2 e | cB GB | B4-| B2 z2 |
w:1.~Aj-tód-nál va-la-ki meg-áll,* Aj-tód-nál va-la-ki meg-áll,*
(B3e) | c2 B2 | G G2 E | E2 !shortphrase!C2 | E E2 G | FE CE | E4-| E2 z2 ||
w: Ó,* test-vér, most légy csak csend-ben, Aj-tód-nál va-la-ki meg-áll.*
|: G2 GE | G2 E2 | E E2 G | FE CE | E4-| E2 z2 |
w:2.~Jé-zu-sod áll kinn, aj-tó-don va-la-ki ko-pog,*
w:3.~Jé-zu-sod áll kinn, bo-csásd be szí-ved aj-ta-ján,*
c2 cG | c2 G2 | B B2 e | cB GB | B4-|B2 z2 |
w: Jé-zu-sod áll kinn, aj-tó-don va-la-ki ko-pog.*
w: Jé-zu-sod áll kinn, bo-csásd be szí-ved aj-ta-ján!*
(B3e) | c2 B2 | G G2 E | E2 !shortphrase!C2 | E E2 G | FE CE | E4-| E2 z2 :|
w: Ó,* test-vér, most légy csak csend-ben, Aj-tó-don va-la-ki ko-pog.*
w: Ó,* test-vér, most légy csak csend-ben, Bo-csásd be szí-ved aj-ta-ján!*

